assets/firebase.svg

<?xml version="1.0" encoding="utf-8"?>
<!-- Generator: Adobe Illustrator 16.0.4, SVG Export Plug-In . SVG Version: 6.00 Build 0)  -->
<!DOCTYPE svg PUBLIC "-//W3C//DTD SVG 1.1//EN" "http://www.w3.org/Graphics/SVG/1.1/DTD/svg11.dtd">
<svg version="1.1" id="Layer_1" xmlns="http://www.w3.org/2000/svg" xmlns:xlink="http://www.w3.org/1999/xlink" x="0px" y="0px"
	 width="256px" height="351px" viewBox="0 0 256 351" enable-background="new 0 0 256 351" xml:space="preserve">
<path fill="#231F20" d="M0,282.998l2.123-2.973L102.527,89.512l0.212-2.017L58.479,4.358c-3.708-6.964-14.148-5.204-15.365,2.592
	L0,282.998z"/>
<path fill="#231F20" d="M135.005,150.381l32.955-33.751l-32.964-62.93c-3.13-5.957-11.867-5.974-14.963,0l-17.612,33.589v2.861
	L135.005,150.381z"/>
<path fill="#231F20" d="M139.121,347.551l116.275-64.848L222.191,78.209c-1.039-6.398-8.888-8.928-13.467-4.34L0,282.998
	l115.608,64.547C122.915,351.625,131.812,351.627,139.121,347.551"/>
</svg>

<?xml version="1.0" encoding="UTF-8"?>
<svg width="256px" height="351px" viewBox="0 0 256 351" version="1.1" xmlns="http://www.w3.org/2000/svg" xmlns:xlink="http://www.w3.org/1999/xlink">
    <!-- Generator: Sketch 52.5 (67469) - http://www.bohemiancoding.com/sketch -->
    <title>firebase</title>
    <desc>Created with Sketch.</desc>
    <g id="Page-1" stroke="none" stroke-width="1" fill="none" fill-rule="evenodd">
        <g id="firebase" fill="#231F20">
            <path d="M0,282.998 L2.123,280.025 L102.527,89.512 L102.739,87.495 L58.479,4.358 C54.771,-2.606 44.331,-0.846 43.114,6.95 L0,282.998 Z" id="Path"></path>
            <path d="M135.005,150.381 L167.96,116.63 L134.996,53.7 C131.866,47.743 123.129,47.726 120.033,53.7 L102.421,87.289 L102.421,90.15 L135.005,150.381 Z" id="Path"></path>
            <path d="M139.121,347.551 L255.396,282.703 L222.191,78.209 C221.152,71.811 213.303,69.281 208.724,73.869 L0,282.998 L115.608,347.545 C122.915,351.625 131.812,351.627 139.121,347.551" id="Path"></path>
        </g>
    </g>
</svg>
